resources/svg/volume-off-vibrate-line.svg

<svg fill="currentColor" viewBox="0 0 24 24" xmlns="http://www.w3.org/2000/svg"><path d="M19.3901 3.16117L20.8043 4.57538L18.3287 7.04955L20.8043 9.52513L18.3287 11.9993L20.8043 14.4749L18.3294 16.9498L20.8043 19.4246L19.3901 20.8388L15.501 16.9498L17.9759 14.4749L15.501 12L17.9759 9.52513L15.501 7.05026L19.3901 3.16117ZM13.001 19.9449C13.001 20.221 12.7771 20.4449 12.501 20.4449C12.3856 20.4449 12.2737 20.405 12.1844 20.3319L6.88998 15.9991L3.00098 16C2.4487 16 2.00098 15.5523 2.00098 15V9.00001C2.00098 8.44772 2.4487 8.00001 3.00098 8.00001L5.58459 7.99762L1.80859 4.22183L3.22281 2.80762L13.0006 12.5856L13.001 19.9449ZM7.58498 9.99811L4.00098 9.999V14L7.60383 13.9989L11.001 16.779V13.4141L7.58498 9.99811ZM12.888 3.73851C12.961 3.82784 13.001 3.93971 13.001 4.05513V9.75711L11.001 7.75711V7.22001L10.705 7.46111L9.28398 6.04011L12.1844 3.66815C12.3981 3.49328 12.7131 3.52479 12.888 3.73851Z"/></svg>

<svg xmlns="http://www.w3.org/2000/svg" viewBox="0 0 24 24" fill="currentColor">
    <g>
        <path fill="none" d="M0 0h24v24H0z"/>
        <path d="M19.39 3.161l1.413 1.414-2.475 2.475 2.475 2.475L18.328 12l2.475 2.476-2.475 2.475 2.475 2.475-1.414 1.414-3.889-3.89 2.475-2.474L15.5 12l2.475-2.475L15.5 7.05l3.89-3.889zM13 19.945a.5.5 0 0 1-.817.387L6.89 15.999 3 16a1 1 0 0 1-1-1V9a1 1 0 0 1 1-1l2.584-.002-3.776-3.776 1.414-1.414L13 12.586v7.359zM7.584 9.998L4 10V14l3.603-.001L11 16.779v-3.365L7.584 9.998zm5.303-6.26a.5.5 0 0 1 .113.317v5.702l-2-2V7.22l-.296.241-1.421-1.42 2.9-2.373a.5.5 0 0 1 .704.07z"/>
    </g>
</svg>
